X:1
T:Title
%%score 1 2
L:1/8
Q:1/4=75
M:9/8
K:F
V:1 treble nm="Strings 1, Soprano"
V:2 treble nm="Strings 1, Bass"
V:1
 z3 z2 C A2 A | A3- A2 F FGA | B6 [Fc]3 | [Ec]3- [Ec]2 [EG] [GB]2 [GB] | [FA]3- [FA]2 C A2 A | %5
w: 1.~O~ sin ner,~|heed~ * the~ Spir * it's~|voice,~ Ere~|mer * cy's~ day~ is~|past;~ * Oh,~ while~ He's~|
 A3- A2 F FGA | B6 [FB]3 | [FA]3- [FA]2 [CG] [CF]2 [CE] | [CF]6 [FB]2 [FB] | %9
w: plead * ing~ make~ * thy~|choice,~ This~|call~ * may~ be~ His~|last.~ * *|
 [FB]3- [FB]2 [FB] F2 [EG] | [FA]6 [Fc]2 [Fc] | [Ec]6 [EG][FA][GB] | [FA]6 A2 A | A3- A2 F FGA | %14
w: |||||
 B6 [Fc]2 [Fc] | [Ec]6 [EB]2 [CE] | [CF]6 z3 |] %17
w: |||
V:2
 z3 z2 A, C2 C | C3- C2[K:bass] A, A,B,C | D6 [F,A,]3 | [C,G,]3- [C,G,]2 [C,C] [C,C]2 [C,C] | %4
 [F,C]3- [F,C]2 A,[K:treble] C2 C | C3- C2 A,[K:bass] A,B,C | D6 [B,,D]3 | %7
 [C,C]3- [C,C]2 [C,B,] [C,A,]2 [C,G,] | [F,A,]6 [B,,D]2 [B,,D] | %9
 [B,,D]3- [B,,D]2 [B,,D] [A,,C]2 [C,C] | [F,C]6 [F,A,]2 [F,A,] | [C,G,]6 [C,C]2 [C,C] | %12
 [F,C]6[K:treble] C2 C | C3- C2 A,[K:bass] A,B,C | D6 [F,A,]2 [F,A,] | [C,G,]6 [C,G,]2 [C,B,] | %16
 [F,A,]6 z3 |] %17

